X:1
T:The Days When We Were Young
M:4/4
L:1/8
K:Eb
 B2 G z B2 E z| F2 EF G2 B3/2 B/2| c3 Bc-B-G E| G2-G-^F-G =F2 F|E-GB-e e2 BB|\
 c2 _d3/2 c/2 F2 GA| B2 BB B2 A2| G2-(3G3.99999962500005/5.99999925000009G3.99999962500005/5.99999925000009^F3.99999962500005/5.99999925000009G3.99999962500005/5.99999925000009^F3.99999962500005/5.99999925000009G3.99999962500005/5.99999925000009 e2 dc|\
 B2 AF E2 D2| E6 EF| G2 c2 c2 e2| d3 GG-FE-F| G3 F A3 G| G4- F2 F2|\
E-GB-e e2 B2| c2 _d3/2- c/2 F2 GA| B2 B2 B2 A2| G2-(3G3.99999962500005/5.99999925000009G3.99999962500005/5.99999925000009^F3.99999962500005/5.99999925000009G3.99999962500005/5.99999925000009^F3.99999962500005/5.99999925000009G3.99999962500005/5.99999925000009 e2 dc|\
 B2A-F E2 D2| E6||
